assets/svg/hand_piece.svg

<svg fill="none" height="74" viewBox="0 0 75 74" width="75" xmlns="http://www.w3.org/2000/svg" xmlns:xlink="http://www.w3.org/1999/xlink"><mask id="a" height="33" maskUnits="userSpaceOnUse" width="14" x="0" y="40"><path clip-rule="evenodd" d="m0 40.0858h13.9801v32.9141h-13.9801z" fill="#fff" fill-rule="evenodd"/></mask><mask id="b" height="26" maskUnits="userSpaceOnUse" width="3" x="0" y="44"><path clip-rule="evenodd" d="m0 44.0289h2.84447v25.8844h-2.84447z" fill="#fff" fill-rule="evenodd"/></mask><g clip-rule="evenodd" fill-rule="evenodd"><path d="m70.8212 30.3027-27.0555 26.6973-2.7657-1.5305 25.4787-25.1421c.2385-.24.2385-.6241 0-.8641l-9.5734-9.4422c-.1062-.1017-.2191-.1964-.3377-.2838 1.4081-1.0741 3.4028-.9636 4.6803.2592l9.5733 9.4422c.2384.24.2384.624 0 .864z" fill="#00ffa4"/><path d="m41.8605 56-2.3605-6-10.2936-1.1261-17.0312-17.1547c-.2336-.2403-.2336-.6246 0-.8647l9.6867-9.7444c1.3931-1.365 1.426-3.6083.0736-5.0143l-.0982-.0988c-.3714-.3584-.8937-.5106-1.3978-.4076-2.7881.4769-5.5789-.8304-7.0135-3.2851-1.2966-2.2684-1.24-5.0734.147-7.28678.9276-1.49464 2.3466-2.6137 4.0095-3.16165 2.4646-.82468 5.1801-.18511 7.0259 1.65486 1.5515 1.57771 2.2464 3.81555 1.8638 6.00229-.091.48788.0497.99038.38 1.35858l.135.1235c.1014.1048.2122.1998.331.2841 1.4165 1.0801 3.4104.9264 4.6471-.3582l7.9822-8.0277 1.7045-1.7168c.2383-.235333.6198-.235333.8582 0l9.3801 9.4481c1.3525 1.4059 1.3195 3.6492-.0736 5.0143l-.1349.1358c-.3615.3505-.8652.5104-1.3609.4323-2.2146-.2993-4.4407.4588-6.0205 2.0501-1.555 1.5129-2.3299 3.6637-2.0997 5.8289.2299 2.1653 1.4392 4.1024 3.2769 5.2494.4559.2843.9463.5085 1.4591.6669 1.9403.5968 4.041.3318 5.775-.7285 2.4589-1.488 3.8146-4.2967 3.4579-7.1634-.077-.5165.0855-1.0401.4414-1.4202l.1104-.1112c.1218-.1212.253-.2327.3923-.3334.1164.0874.2268.1822.331.2841l9.3801 9.4479c.2336.2403.2336.6245 0 .8646z" fill="#03d79e"/><path d="m12.1779 31.2364c-.2372.2392-.2372.6222 0 .8614l14.9404 14.7686c.4858.3747 1.0026.7087 1.5451.9979.5551.094 1.1176.1393 1.6808.1354l1.6558.0003-16.087-15.9022c-.2372-.2392-.2372-.6222 0-.8614l9.8357-9.7103c1.4139-1.3606 1.4473-3.5955.0747-4.9967l-.0995-.0984c-.3773-.3571-.9075-.5089-1.4193-.4061-2.8313.4755-5.6651-.8273-7.1217-3.2737-1.3166-2.2604-1.2591-5.05563.1494-7.26124.9417-1.48924 2.3826-2.60438 4.0713-3.15055.1145-.03692.2315-.05538.3474-.0861-1.3403-.36489-2.7592-.33503-4.0825.0861-1.6887.54617-3.1296 1.66131-4.0712 3.15055-1.4084 2.20561-1.4661 5.00084-.1494 7.26124 1.4565 2.4464 4.2903 3.7492 7.1216 3.2737.5118-.1028 1.042.049 1.4193.4061l.0995.0984c1.3727 1.4012 1.3392 3.6361-.0747 4.9967z" fill="#fff"/><path d="m43.4794 58.3297c-.4943-.0002-.4816.3706-.6706-.0888-.1891-.4594-.0847-.9883.2648-1.3399l25.9851-26.1586-8.9126-8.9679c-.916-.871-2.3579-.8381-3.2336.0739l-.115.1154c-.0819.1139-.1129.2571-.0855.3949.4136 3.327-1.1587 6.5869-4.0121 8.3186-2.6 1.6099-5.873 1.635-8.4971.0651-2.1194-1.2904-3.5301-3.4912-3.8239-5.9663-.2988-2.5922.6073-5.1783 2.4555-7.0091 1.848-1.8308 4.432-2.7019 7.0034-2.3608.1141.0182.2308-.0116.3226-.0824l.1381-.1365c.9071-.8837.937-2.3378.0673-3.2586l-8.909-8.95936-9.2181 9.26426c-.8842.8983-2.0825 1.4129-3.3388 1.4338h-.0746c-1.2292.0056-2.4092-.4848-3.2764-1.3612l-.0892-.08c-.6306-.6444-.9167-1.5535-.7699-2.44566.3198-1.74433-.2065-3.53738-1.4168-4.82694-1.2103-1.28941-2.9594-1.92057-4.7083-1.69894-1.8552.22537-3.5061 1.29157-4.4826 2.89455-1.1398 1.8112-1.1896 4.10819-.1296 5.96759 1.1775 2.0052 3.4613 3.0731 5.7439 2.6857.8879-.1648 1.7999.116 2.444.7524l.0967.0972c.8849.8898 1.3704 2.1046 1.3442 3.363-.0152 1.2648-.5223 2.473-1.4127 3.3656l-9.217 9.2593 16.5372 16.6411c.4632.4824.4566 1.2493-.0149 1.7237-.4713.4744-1.2335.481-1.7131.015l-17.4023-17.5104c-.2296-.2306-.3585-.5435-.3585-.8699s.1289-.6394.3585-.87l10.0821-10.1311c.4421-.4401.6953-1.037.7052-1.6625.0131-.5948-.2149-1.1694-.632-1.5912l-.0976-.0984c-.0959-.0668-.2153-.0898-.3289-.0628-3.2735.5607-6.5512-.9707-8.238-3.8488-1.5292-2.6558-1.4695-5.94573.1552-8.54358 1.3762-2.23673 3.6932-3.71737 6.2901-4.019833 2.5067-.306791 5.0096.600033 6.7465 2.444233 1.737 1.84435 2.5025 4.40775 2.0635 6.90978-.0216.1012-.0028.2068.0526.294l.0746.0651c.409.4688 1.0101.7211 1.6289.6837.6215-.0122 1.2139-.2686 1.6498-.7144l10.0823-10.133592c.4772-.480144 1.2507-.480144 1.7279 0l9.7768 9.837192c1.8161 1.8835 1.7835 4.8882-.0734 6.7312l-.1368.1365c-.6264.6159-1.5016.9039-2.3684.7796-1.8231-.242-3.6554.3749-4.9667 1.672-1.3112 1.2972-1.9554 3.1298-1.7462 4.9681.1944 1.7338 1.1844 3.2759 2.675 4.1673 1.836 1.091 4.1218 1.0667 5.9346-.0627 2.0352-1.2311 3.1601-3.5517 2.8718-5.9233-.1269-.8924.1631-1.7937.7858-2.442l.116-.1156c1.8287-1.8621 4.8062-1.8962 6.6763-.0762l9.7767 9.8371c.4771.4803.4771 1.2586 0 1.7389l-26.5308 26.6327c-.2264.2297-.8522-.0032-1.1738 0z" fill="#00343d" stroke="#fff"/><path d="m40.1156 58.2272c-.4973.0006-.563.4673-.748 0-.1849-.4674-.0702-1.0018.2899-1.3491 1.0174-1.0481 1.2059-2.6602.4581-3.92l-.1092-.1834c-.882-1.479-2.462-2.3849-4.1685-2.39h-6.3602c-2.7947-.0039-5.5055-.9666-7.6901-2.7311-1.7521-1.4159-3.9264-2.1887-6.1683-2.192h-3.4037c-.6714 0-1.2156-.5511-1.2156-1.2307 0-.6798.5442-1.2309 1.2156-1.2309h3.4037c2.7948.0039 5.5056.9666 7.6902 2.7311 1.7521 1.4159 3.9264 2.1887 6.1682 2.192h6.3589c2.56.008 4.9306 1.3669 6.2546 3.5853l.1093.1833c1.3263 2.2385 1.1097 4.9007-.7164 6.7432-.0413.0407-.4379-.4603-.4841-.4256-.2074.16-.242-.0014-.5026 0z" fill="#00343d" stroke="#fff"/><path d="m43.4865 72h-31.2513c-.6822 0-1.2352-.5504-1.2352-1.2296 0-.6791.553-1.2295 1.2352-1.2295h31.2513c1.3595 0 2.6928-.3722 3.8539-1.076l23.1545-14.0299c.5176-.3137.8781-.8305.9923-1.4231.1145-.5925-.028-1.2056-.392-1.6878-.0248-.0345-.0494-.069-.0705-.1046-.5666-.6774-1.495-.9353-2.332-.648l-22.8592 7.588c-.6321.2093-1.2942.3157-1.9604.3148h-10.9787c-1.9514-.0019-3.8594.5732-5.4819 1.6527l-.9043.6c-.5675.3769-1.3347.2243-1.7132-.3407-.3787-.5651-.2255-1.3285.3421-1.7055l.9056-.6c2.0278-1.349 4.4126-2.0681 6.8517-2.0658h10.9787c.399 0 .7951-.0638 1.1734-.1893l22.8641-7.5866c1.8856-.6303 3.9644.0141 5.1571 1.5983.0258.0337.0497.0686.0718.1046.7393 1.0195 1.0195 2.2993.7732 3.5328-.2476 1.2751-1.0245 2.3871-2.1395 3.0617l-23.1494 14.0286c-1.5474.9391-3.3249 1.4356-5.1373 1.4349z" fill="#00343d"/></g><path d="m43.4865 72h-31.2513c-.6822 0-1.2352-.5504-1.2352-1.2296 0-.6791.553-1.2295 1.2352-1.2295h31.2513c1.3595 0 2.6928-.3722 3.8539-1.076l23.1545-14.0299c.5176-.3137.8781-.8305.9923-1.4231.1145-.5925-.028-1.2056-.392-1.6878-.0248-.0345-.0494-.069-.0705-.1046-.5666-.6774-1.495-.9353-2.332-.648l-22.8592 7.588c-.6321.2093-1.2942.3157-1.9604.3148h-10.9787c-1.9514-.0019-3.8594.5732-5.4819 1.6527l-.9043.6c-.5675.3769-1.3347.2243-1.7132-.3407-.3787-.5651-.2255-1.3285.3421-1.7055l.9056-.6c2.0278-1.349 4.4126-2.0681 6.8517-2.0658h10.9787c.399 0 .7951-.0638 1.1734-.1893l22.8641-7.5866c1.8856-.6303 3.9644.0141 5.1571 1.5983.0258.0337.0497.0686.0718.1046.7393 1.0195 1.0195 2.2993.7732 3.5328-.2476 1.2751-1.0245 2.3871-2.1395 3.0617l-23.1494 14.0286c-1.5474.9391-3.3249 1.4356-5.1373 1.4349" stroke="#fff"/><g mask="url(#a)"><path clip-rule="evenodd" d="m10.1674 40.0858h-6.35463c-2.10313.006-3.80636574 1.6398-3.81277 3.6571v25.6c.00640426 2.0173 1.70964 3.651 3.81277 3.657h6.35463c1.4027-.001 2.6913-.7409 3.3553-1.926.3024-.5307.4599-1.1263.4575-1.731v-25.6c-.0063-2.0173-1.7096-3.6511-3.8128-3.6571z" fill="#00ffa4" fill-rule="evenodd"/></g><path clip-rule="evenodd" d="m5.14282 40h-1.28567c-2.12761.006-3.85082186 1.6441-3.85715 3.6667v25.6668c.00632814 2.0225 1.72954 3.6605 3.85715 3.6665h1.28567c1.41901-.001 2.72261-.7428 3.3943-1.931.30601-.5321.46526-1.1292.46285-1.7355v-25.6668c-.00633-2.0226-1.72954-3.6607-3.85715-3.6667z" fill="#03d79e" fill-rule="evenodd"/><path clip-rule="evenodd" d="m15.3871 70c-.0019.3315-.1348.6577-.3871.95l.3871.05h1.2904c.1994-.3192.3085-.6576.3225-1z" fill="#fff" fill-rule="evenodd"/><path clip-rule="evenodd" d="m12 42.9594v.016c.3353.0073.6695.0258 1 .0652-.0084-.027-.0143-.0543-.0239-.0812z" fill="#fff" fill-rule="evenodd"/><path clip-rule="evenodd" d="m4.5 73h3.5c-1.93061-.006-3.49426-1.6441-3.5-3.6667v-25.6668c.00574-2.0225 1.56939-3.6605 3.5-3.6665h-3.5c-1.93061.006-3.49426 1.644-3.5 3.6665v25.6668c.00574 2.0226 1.56939 3.6607 3.5 3.6667z" fill="#fff" fill-rule="evenodd"/><g mask="url(#b)"><path clip-rule="evenodd" d="m2.8445 44.0289v16.0238 9.8606h-2.8445v-9.8606-16.0238z" fill="#fff" fill-rule="evenodd"/></g><path clip-rule="evenodd" d="m2 54c-.00388-.2647-.10776-.5182-.29084-.7101l-.15041-.1199c-.05582-.0378-.11657-.0682-.18049-.0901-.05676-.0288-.11763-.0491-.1805-.0599-.06627-.0111-.13326-.0179-.200589-.02-.265337.0039-.519628.1075-.711874.2899-.090718.0958-.162163.2077-.2105775.3302-.1512351.3729-.06886075.7997.2105775 1.09.095888.0903.208227.1616.330908.21.120565.0512.25006.0785.380966.0799.265569-.0038.519749-.1073.711989-.2899.18308-.1918.28696-.4452.29084-.7101z" fill="#00343d" fill-rule="evenodd"/><path d="m2 54c-.00388-.2647-.10776-.5182-.29084-.7101l-.15041-.1199c-.05582-.0378-.11657-.0682-.18049-.0901-.05676-.0288-.11763-.0491-.1805-.0599-.06627-.0111-.13326-.0179-.200589-.02-.265337.0039-.519628.1075-.711874.2899-.090718.0958-.162163.2077-.2105775.3302-.1512351.3729-.06886075.7997.2105775 1.09.095888.0903.208227.1616.330908.21.120565.0512.25006.0785.380966.0799.265569-.0038.519749-.1073.711989-.2899.18308-.1918.28696-.4452.29084-.7101" stroke="#fff"/><path clip-rule="evenodd" d="m10.1674 72.5h-6.35463c-2.10566 0-3.81277-1.6373-3.81277-3.6572 0-.6731.569085-1.219 1.27102-1.219.70179 0 1.27087.5459 1.27087 1.219 0 .6733.56909 1.2192 1.27088 1.2192h6.35463c.702 0 1.271-.5459 1.271-1.2192v-25.6c0-.6733-.569-1.219-1.271-1.219h-6.35463c-.70179 0-1.27088.5457-1.27088 1.219s-.56908 1.219-1.27087 1.219c-.701935 0-1.27102-.5457-1.27102-1.219 0-2.0197 1.70711-3.657 3.81277-3.657h6.35463c2.1058 0 3.8128 1.6373 3.8128 3.657v25.6c0 2.0199-1.707 3.6572-3.8128 3.6572z" fill="#00343d" fill-rule="evenodd"/><path d="m10.1674 72.5h-6.35463c-2.10566 0-3.81277-1.6373-3.81277-3.6572 0-.6731.569085-1.219 1.27102-1.219.70179 0 1.27087.5459 1.27087 1.219 0 .6733.56909 1.2192 1.27088 1.2192h6.35463c.702 0 1.271-.5459 1.271-1.2192v-25.6c0-.6733-.569-1.219-1.271-1.219h-6.35463c-.70179 0-1.27088.5457-1.27088 1.219s-.56908 1.219-1.27087 1.219c-.701935 0-1.27102-.5457-1.27102-1.219 0-2.0197 1.70711-3.657 3.81277-3.657h6.35463c2.1058 0 3.8128 1.6373 3.8128 3.657v25.6c0 2.0199-1.707 3.6572-3.8128 3.6572" stroke="#fff"/></svg>

<svg width="75" height="74" viewBox="0 0 75 74" fill="none" xmlns="http://www.w3.org/2000/svg">
<path fill-rule="evenodd" clip-rule="evenodd" d="M70.8212 30.3027L43.7657 57L41 55.4695L66.4787 30.3274C66.7172 30.0874 66.7172 29.7033 66.4787 29.4633L56.9053 20.0211C56.7991 19.9194 56.6862 19.8247 56.5676 19.7373C57.9757 18.6632 59.9704 18.7737 61.2479 19.9965L70.8212 29.4387C71.0596 29.6787 71.0596 30.0627 70.8212 30.3027Z" fill="#00FFA4"/>
<path fill-rule="evenodd" clip-rule="evenodd" d="M41.8605 56L39.5 50L29.2064 48.8739L12.1752 31.7192C11.9416 31.4789 11.9416 31.0946 12.1752 30.8545L21.8619 21.1101C23.255 19.7451 23.2879 17.5018 21.9355 16.0958L21.8373 15.997C21.4659 15.6386 20.9436 15.4864 20.4395 15.5894C17.6514 16.0663 14.8606 14.759 13.426 12.3043C12.1294 10.0359 12.186 7.2309 13.573 5.01752C14.5006 3.52288 15.9196 2.40382 17.5825 1.85587C20.0471 1.03119 22.7626 1.67076 24.6084 3.51073C26.1599 5.08844 26.8548 7.32628 26.4722 9.51302C26.3812 10.0009 26.5219 10.5034 26.8522 10.8716L26.9872 10.9951C27.0886 11.0999 27.1994 11.1949 27.3182 11.2792C28.7347 12.3593 30.7286 12.2056 31.9653 10.921L39.9475 2.8933L41.652 1.1765C41.8903 0.941167 42.2718 0.941167 42.5102 1.1765L51.8903 10.6246C53.2428 12.0305 53.2098 14.2738 51.8167 15.6389L51.6818 15.7747C51.3203 16.1252 50.8166 16.2851 50.3209 16.207C48.1063 15.9077 45.8802 16.6658 44.3004 18.2571C42.7454 19.77 41.9705 21.9208 42.2007 24.086C42.4306 26.2513 43.6399 28.1884 45.4776 29.3354C45.9335 29.6197 46.4239 29.8439 46.9367 30.0023C48.877 30.5991 50.9777 30.3341 52.7117 29.2738C55.1706 27.7858 56.5263 24.9771 56.1696 22.1104C56.0926 21.5939 56.2551 21.0703 56.611 20.6902L56.7214 20.579C56.8432 20.4578 56.9744 20.3463 57.1137 20.2456C57.2301 20.333 57.3405 20.4278 57.4447 20.5297L66.8248 29.9776C67.0584 30.2179 67.0584 30.6021 66.8248 30.8422L41.8605 56Z" fill="#03D79E"/>
<path fill-rule="evenodd" clip-rule="evenodd" d="M12.1779 31.2364C11.9407 31.4756 11.9407 31.8586 12.1779 32.0978L27.1183 46.8664C27.6041 47.2411 28.1209 47.5751 28.6634 47.8643C29.2185 47.9583 29.781 48.0036 30.3442 47.9997L32 48L15.913 32.0978C15.6758 31.8586 15.6758 31.4756 15.913 31.2364L25.7487 21.5261C27.1626 20.1655 27.196 17.9306 25.8234 16.5294L25.7239 16.431C25.3466 16.0739 24.8164 15.9221 24.3046 16.0249C21.4733 16.5004 18.6395 15.1976 17.1829 12.7512C15.8663 10.4908 15.9238 7.69557 17.3323 5.48996C18.274 4.00072 19.7149 2.88558 21.4036 2.33941C21.5181 2.30249 21.6351 2.28403 21.751 2.25331C20.4107 1.88842 18.9918 1.91828 17.6685 2.33941C15.9798 2.88558 14.5389 4.00072 13.5973 5.48996C12.1889 7.69557 12.1312 10.4908 13.4479 12.7512C14.9044 15.1976 17.7382 16.5004 20.5695 16.0249C21.0813 15.9221 21.6115 16.0739 21.9888 16.431L22.0883 16.5294C23.461 17.9306 23.4275 20.1655 22.0136 21.5261L12.1779 31.2364Z" fill="white"/>
<path fill-rule="evenodd" clip-rule="evenodd" d="M43.4794 58.3297C42.9851 58.3295 42.9978 58.7003 42.8088 58.2409C42.6197 57.7815 42.7241 57.2526 43.0736 56.901L69.0587 30.7424L60.1461 21.7745C59.2301 20.9035 57.7882 20.9364 56.9125 21.8484L56.7975 21.9638C56.7156 22.0777 56.6846 22.2209 56.712 22.3587C57.1256 25.6857 55.5533 28.9456 52.6999 30.6773C50.0999 32.2872 46.8269 32.3123 44.2028 30.7424C42.0834 29.452 40.6727 27.2512 40.3789 24.7761C40.0801 22.1839 40.9862 19.5978 42.8344 17.767C44.6824 15.9362 47.2664 15.0651 49.8378 15.4062C49.9519 15.4244 50.0686 15.3946 50.1604 15.3238L50.2985 15.1873C51.2056 14.3036 51.2355 12.8495 50.3658 11.9287L41.4568 2.96934L32.2387 12.2336C31.3545 13.1319 30.1562 13.6465 28.8999 13.6674H28.8253C27.5961 13.673 26.4161 13.1826 25.5489 12.3062L25.4597 12.2262C24.8291 11.5818 24.543 10.6727 24.6898 9.78054C25.0096 8.03621 24.4833 6.24316 23.273 4.9536C22.0627 3.66419 20.3136 3.03303 18.5647 3.25466C16.7095 3.48003 15.0586 4.54623 14.0821 6.14921C12.9423 7.96041 12.8925 10.2574 13.9525 12.1168C15.13 14.122 17.4138 15.1899 19.6964 14.8025C20.5843 14.6377 21.4963 14.9185 22.1404 15.5549L22.2371 15.6521C23.122 16.5419 23.6075 17.7567 23.5813 19.0151C23.5661 20.2799 23.059 21.4881 22.1686 22.3807L12.9516 31.64L29.4888 48.2811C29.952 48.7635 29.9454 49.5304 29.4739 50.0048C29.0026 50.4792 28.2404 50.4858 27.7608 50.0198L10.3585 32.5094C10.1289 32.2788 10 31.9659 10 31.6395C10 31.3131 10.1289 31.0001 10.3585 30.7695L20.4406 20.6384C20.8827 20.1983 21.1359 19.6014 21.1458 18.9759C21.1589 18.3811 20.9309 17.8065 20.5138 17.3847L20.4162 17.2863C20.3203 17.2195 20.2009 17.1965 20.0873 17.2235C16.8138 17.7842 13.5361 16.2528 11.8493 13.3747C10.3201 10.7189 10.3798 7.42897 12.0045 4.83112C13.3807 2.59439 15.6977 1.11375 18.2946 0.811287C20.8013 0.504496 23.3042 1.41132 25.0411 3.25552C26.7781 5.09987 27.5436 7.66327 27.1046 10.1653C27.083 10.2665 27.1018 10.3721 27.1572 10.4593L27.2318 10.5244C27.6408 10.9932 28.2419 11.2455 28.8607 11.2081C29.4822 11.1959 30.0746 10.9395 30.5105 10.4937L40.5928 0.360108C41.07 -0.120036 41.8435 -0.120036 42.3207 0.360108L52.0975 10.1973C53.9136 12.0808 53.881 15.0855 52.0241 16.9285L51.8873 17.065C51.2609 17.6809 50.3857 17.9689 49.5189 17.8446C47.6958 17.6026 45.8635 18.2195 44.5522 19.5166C43.241 20.8138 42.5968 22.6464 42.806 24.4847C43.0004 26.2185 43.9904 27.7606 45.481 28.652C47.317 29.743 49.6028 29.7187 51.4156 28.5893C53.4508 27.3582 54.5757 25.0376 54.2874 22.666C54.1605 21.7736 54.4505 20.8723 55.0732 20.224L55.1892 20.1084C57.0179 18.2463 59.9954 18.2122 61.8655 20.0322L71.6422 29.8693C72.1193 30.3496 72.1193 31.1279 71.6422 31.6082L45.1114 58.2409C44.885 58.4706 44.2592 58.2377 43.9376 58.2409L43.4794 58.3297Z" fill="#00343D" stroke="white"/>
<path fill-rule="evenodd" clip-rule="evenodd" d="M40.1156 58.2272C39.6183 58.2278 39.5526 58.6945 39.3676 58.2272C39.1827 57.7598 39.2974 57.2254 39.6575 56.8781C40.6749 55.83 40.8634 54.2179 40.1156 52.9581L40.0064 52.7747C39.1244 51.2957 37.5444 50.3898 35.8379 50.3847H29.4777C26.683 50.3808 23.9722 49.4181 21.7876 47.6536C20.0355 46.2377 17.8612 45.4649 15.6193 45.4616H12.2156C11.5442 45.4616 11 44.9105 11 44.2309C11 43.5511 11.5442 43 12.2156 43H15.6193C18.4141 43.0039 21.1249 43.9666 23.3095 45.7311C25.0616 47.147 27.2359 47.9198 29.4777 47.9231H35.8366C38.3966 47.9311 40.7672 49.29 42.0912 51.5084L42.2005 51.6917C43.5268 53.9302 43.3102 56.5924 41.4841 58.4349C41.4428 58.4756 41.0462 57.9746 41 58.0093C40.7926 58.1693 40.758 58.0079 40.4974 58.0093L40.1156 58.2272Z" fill="#00343D" stroke="white"/>
<path fill-rule="evenodd" clip-rule="evenodd" d="M43.4865 72H12.2352C11.553 72 11 71.4496 11 70.7704C11 70.0913 11.553 69.5409 12.2352 69.5409H43.4865C44.846 69.5409 46.1793 69.1687 47.3404 68.4649L70.4949 54.435C71.0125 54.1213 71.373 53.6045 71.4872 53.0119C71.6017 52.4194 71.4592 51.8063 71.0952 51.3241C71.0704 51.2896 71.0458 51.2551 71.0247 51.2195C70.4581 50.5421 69.5297 50.2842 68.6927 50.5715L45.8335 58.1595C45.2014 58.3688 44.5393 58.4752 43.8731 58.4743H32.8944C30.943 58.4724 29.035 59.0475 27.4125 60.127L26.5082 60.727C25.9407 61.1039 25.1735 60.9513 24.795 60.3863C24.4163 59.8212 24.5695 59.0578 25.1371 58.6808L26.0427 58.0808C28.0705 56.7318 30.4553 56.0127 32.8944 56.015H43.8731C44.2721 56.015 44.6682 55.9512 45.0465 55.8257L67.9106 48.2391C69.7962 47.6088 71.875 48.2532 73.0677 49.8374C73.0935 49.8711 73.1174 49.906 73.1395 49.942C73.8788 50.9615 74.159 52.2413 73.9127 53.4748C73.6651 54.7499 72.8882 55.8619 71.7732 56.5365L48.6238 70.5651C47.0764 71.5042 45.2989 72.0007 43.4865 72Z" fill="#00343D"/>
<path d="M43.4865 72H12.2352C11.553 72 11 71.4496 11 70.7704C11 70.0913 11.553 69.5409 12.2352 69.5409H43.4865C44.846 69.5409 46.1793 69.1687 47.3404 68.4649L70.4949 54.435C71.0125 54.1213 71.373 53.6045 71.4872 53.0119C71.6017 52.4194 71.4592 51.8063 71.0952 51.3241C71.0704 51.2896 71.0458 51.2551 71.0247 51.2195C70.4581 50.5421 69.5297 50.2842 68.6927 50.5715L45.8335 58.1595C45.2014 58.3688 44.5393 58.4752 43.8731 58.4743H32.8944C30.943 58.4724 29.035 59.0475 27.4125 60.127L26.5082 60.727C25.9407 61.1039 25.1735 60.9513 24.795 60.3863C24.4163 59.8212 24.5695 59.0578 25.1371 58.6808L26.0427 58.0808C28.0705 56.7318 30.4553 56.0127 32.8944 56.015H43.8731C44.2721 56.015 44.6682 55.9512 45.0465 55.8257L67.9106 48.2391C69.7962 47.6088 71.875 48.2532 73.0677 49.8374C73.0935 49.8711 73.1174 49.906 73.1395 49.942C73.8788 50.9615 74.159 52.2413 73.9127 53.4748C73.6651 54.7499 72.8882 55.8619 71.7732 56.5365L48.6238 70.5651C47.0764 71.5042 45.2989 72.0007 43.4865 72" stroke="white"/>
<mask id="mask0" mask-type="alpha" maskUnits="userSpaceOnUse" x="0" y="40" width="14" height="33">
<path fill-rule="evenodd" clip-rule="evenodd" d="M0 40.0858H13.9801V72.9999H0V40.0858Z" fill="white"/>
</mask>
<g mask="url(#mask0)">
<path fill-rule="evenodd" clip-rule="evenodd" d="M10.1674 40.0858H3.81277C1.70964 40.0918 0.00640426 41.7256 0 43.7429V69.3429C0.00640426 71.3602 1.70964 72.9939 3.81277 72.9999H10.1674C11.5701 72.9989 12.8587 72.259 13.5227 71.0739C13.8251 70.5432 13.9826 69.9476 13.9802 69.3429V43.7429C13.9739 41.7256 12.2706 40.0918 10.1674 40.0858Z" fill="#00FFA4"/>
</g>
<path fill-rule="evenodd" clip-rule="evenodd" d="M5.14282 40H3.85715C1.72954 40.006 0.00632814 41.6441 0 43.6667V69.3335C0.00632814 71.356 1.72954 72.994 3.85715 73H5.14282C6.56183 72.999 7.86543 72.2572 8.53712 71.069C8.84313 70.5369 9.00238 69.9398 8.99997 69.3335V43.6667C8.99364 41.6441 7.27043 40.006 5.14282 40Z" fill="#03D79E"/>
<path fill-rule="evenodd" clip-rule="evenodd" d="M15.3871 70C15.3852 70.3315 15.2523 70.6577 15 70.95L15.3871 71H16.6775C16.8769 70.6808 16.986 70.3424 17 70H15.3871Z" fill="white"/>
<path fill-rule="evenodd" clip-rule="evenodd" d="M12 42.9594V42.9754C12.3353 42.9827 12.6695 43.0012 13 43.0406C12.9916 43.0136 12.9857 42.9863 12.9761 42.9594H12Z" fill="white"/>
<path fill-rule="evenodd" clip-rule="evenodd" d="M4.5 73H8C6.06939 72.994 4.50574 71.3559 4.5 69.3333V43.6665C4.50574 41.644 6.06939 40.006 8 40H4.5C2.56939 40.006 1.00574 41.644 1 43.6665V69.3333C1.00574 71.3559 2.56939 72.994 4.5 73Z" fill="white"/>
<mask id="mask1" mask-type="alpha" maskUnits="userSpaceOnUse" x="0" y="44" width="3" height="26">
<path fill-rule="evenodd" clip-rule="evenodd" d="M0 44.0289H2.84447V69.9133H0V44.0289Z" fill="white"/>
</mask>
<g mask="url(#mask1)">
<path fill-rule="evenodd" clip-rule="evenodd" d="M2.8445 44.0289V60.0527V69.9133H0V60.0527V44.0289H2.8445Z" fill="white"/>
</g>
<path fill-rule="evenodd" clip-rule="evenodd" d="M2 54C1.99612 53.7353 1.89224 53.4818 1.70916 53.2899L1.55875 53.17C1.50293 53.1322 1.44218 53.1018 1.37826 53.0799C1.3215 53.0511 1.26063 53.0308 1.19776 53.02C1.13149 53.0089 1.0645 53.0021 0.997171 53C0.731834 53.0039 0.477543 53.1075 0.285297 53.2899C0.194579 53.3857 0.123134 53.4976 0.0747195 53.6201C-0.0765156 53.993 0.00585875 54.4198 0.285297 54.7101C0.381185 54.8004 0.493524 54.8717 0.616205 54.9201C0.73677 54.9713 0.866265 54.9986 0.997171 55C1.26274 54.9962 1.51692 54.8927 1.70916 54.7101C1.89224 54.5183 1.99612 54.2649 2 54Z" fill="#00343D"/>
<path d="M2 54C1.99612 53.7353 1.89224 53.4818 1.70916 53.2899L1.55875 53.17C1.50293 53.1322 1.44218 53.1018 1.37826 53.0799C1.3215 53.0511 1.26063 53.0308 1.19776 53.02C1.13149 53.0089 1.0645 53.0021 0.997171 53C0.731834 53.0039 0.477543 53.1075 0.285297 53.2899C0.194579 53.3857 0.123134 53.4976 0.0747195 53.6201C-0.0765156 53.993 0.00585875 54.4198 0.285297 54.7101C0.381185 54.8004 0.493524 54.8717 0.616205 54.9201C0.73677 54.9713 0.866265 54.9986 0.997171 55C1.26274 54.9962 1.51692 54.8927 1.70916 54.7101C1.89224 54.5183 1.99612 54.2649 2 54" stroke="white"/>
<path fill-rule="evenodd" clip-rule="evenodd" d="M10.1674 72.5H3.81277C1.70711 72.5 0 70.8627 0 68.8428C0 68.1697 0.569085 67.6238 1.27102 67.6238C1.97281 67.6238 2.54189 68.1697 2.54189 68.8428C2.54189 69.5161 3.11098 70.062 3.81277 70.062H10.1674C10.8694 70.062 11.4384 69.5161 11.4384 68.8428V43.2428C11.4384 42.5695 10.8694 42.0238 10.1674 42.0238H3.81277C3.11098 42.0238 2.54189 42.5695 2.54189 43.2428C2.54189 43.9161 1.97281 44.4618 1.27102 44.4618C0.569085 44.4618 0 43.9161 0 43.2428C0 41.2231 1.70711 39.5858 3.81277 39.5858H10.1674C12.2732 39.5858 13.9802 41.2231 13.9802 43.2428V68.8428C13.9802 70.8627 12.2732 72.5 10.1674 72.5Z" fill="#00343D"/>
<path d="M10.1674 72.5H3.81277C1.70711 72.5 0 70.8627 0 68.8428C0 68.1697 0.569085 67.6238 1.27102 67.6238C1.97281 67.6238 2.54189 68.1697 2.54189 68.8428C2.54189 69.5161 3.11098 70.062 3.81277 70.062H10.1674C10.8694 70.062 11.4384 69.5161 11.4384 68.8428V43.2428C11.4384 42.5695 10.8694 42.0238 10.1674 42.0238H3.81277C3.11098 42.0238 2.54189 42.5695 2.54189 43.2428C2.54189 43.9161 1.97281 44.4618 1.27102 44.4618C0.569085 44.4618 0 43.9161 0 43.2428C0 41.2231 1.70711 39.5858 3.81277 39.5858H10.1674C12.2732 39.5858 13.9802 41.2231 13.9802 43.2428V68.8428C13.9802 70.8627 12.2732 72.5 10.1674 72.5" stroke="white"/>
</svg>
